X:7
T:The Lady Frances Nevill's Delight - Part 1
M:C
L:1/8
K:Bb
%%score 1 2
V:1 clef-treble
V:2 clef-bass octave=-1
[V:1]F GA|[DFB]2 [EGB]2 [DFB]2 AB|[Fc]B(AG) F2 [EG]A|[DB]2 D2 E2 F2|
w:Come, here's to Ro-bin Hood, Of the mer-ry green-*wood, And a bless-ing on his
[V:2]z1z2|[B,B]2 [EB]2 B2 z2|[FA]4 [DB]2C2|G,2 D2 E2 F2|


